packages/vibrant-icons/assets/icons/Volume/Regular.svg

<svg width="24" height="24" viewBox="0 0 24 24" fill="none" xmlns="http://www.w3.org/2000/svg"><path d="M7.2199 18.3504H.899902V5.65043H7.2199l7.38-4.835V23.1854l-7.38-4.835Zm.657-2.2 4.5235 2.9635V4.88693l-4.5235 2.9635h-4.777v8.29997h4.777Zm10.6995 2.5675.0705-.071c1.7755-1.776 2.7535-4.1365 2.7535-6.6465 0-2.50997-.978-4.87097-2.7535-6.64647l-.0705-.071 1.5555-1.5555.071.0705c2.191 2.191 3.3975 5.104 3.3975 8.20247 0 3.0985-1.2065 6.011-3.3975 8.2025l-.071.0705-1.5555-1.5555Zm-2.8285-2.8285.0705-.071c1.02-1.0195 1.5815-2.376 1.5815-3.8185s-.5615-2.79897-1.5815-3.81847l-.0705-.071 1.5555-1.5555.071.0705c1.4355 1.4355 2.226 3.344 2.226 5.37397 0 2.03-.7905 3.939-2.226 5.374l-.071.0705-1.5555-1.5555v.001Z" fill="#000"/></svg>

<svg xmlns="http://www.w3.org/2000/svg" width="24" height="24" fill="none"><path fill="#000" d="M7.22 18.35H.9V5.65h6.32L14.6.815v22.37zm.657-2.2 4.523 2.964V4.887L7.877 7.85H3.1v8.3zm10.7 2.568.07-.071A9.34 9.34 0 0 0 21.4 12a9.34 9.34 0 0 0-2.753-6.646l-.07-.071 1.555-1.556.07.07A11.52 11.52 0 0 1 23.6 12c0 3.099-1.206 6.011-3.397 8.203l-.071.07zm-2.83-2.829.071-.07c1.02-1.02 1.582-2.377 1.582-3.82s-.562-2.798-1.582-3.818l-.07-.07 1.555-1.556.071.07A7.55 7.55 0 0 1 19.6 12a7.55 7.55 0 0 1-2.226 5.374l-.07.07z"/></svg>
